icons/living-room.svg

<?xml version="1.0" encoding="UTF-8"?><svg xmlns="http://www.w3.org/2000/svg" viewBox="0 0 50 50"><g id="uuid-206eea4f-0e48-4716-9f9f-eb9c3c0b9c8f"><path d="M18.45,16.78h27.77s.02,0,.03,0c.04,0,.07-.01,.1-.02,.03,0,.06-.01,.08-.03,.03-.01,.05-.03,.08-.05,.03-.02,.06-.04,.08-.07,0,0,.02-.01,.02-.02,.01-.02,.02-.04,.03-.06,.02-.03,.03-.06,.05-.09,.01-.03,.02-.07,.02-.1,0-.02,.01-.04,.01-.06V6.34c0-.28-.22-.5-.5-.5H18.45c-.28,0-.5,.22-.5,.5v9.93c0,.28,.22,.5,.5,.5Zm20.68-5.43l5.64,4.43h-13.32l7.68-4.43Zm-9.26,4.18l-1.58-.92c.08-1.13,1.02-2.03,2.17-2.03,.92,0,1.73,.58,2.04,1.43l-2.63,1.52Zm-1.57,.25h-4.6l2.02-1.5,2.59,1.5ZM18.95,6.84h26.77V15.25l-6.23-4.89c-.16-.13-.38-.14-.56-.04l-5.55,3.2c-.49-1.14-1.63-1.93-2.92-1.93-1.51,0-2.78,1.07-3.1,2.49l-1.43-.83c-.17-.1-.39-.09-.55,.03l-3.37,2.5h-3.08V6.84Z"/><path d="M47.55,29.88h-2.61v-.35c0-1.93-1.57-3.49-3.49-3.49h-8.67c-1.34,0-2.49,.76-3.07,1.87-.58-1.13-1.74-1.92-3.1-1.92h-8.67c-1.93,0-3.49,1.57-3.49,3.49v.4h-2.61c-.28,0-.5,.22-.5,.5v10.78c0,.28,.22,.5,.5,.5h1.49v2c0,.28,.22,.5,.5,.5s.5-.22,.5-.5v-2h30.76v2c0,.28,.22,.5,.5,.5s.5-.22,.5-.5v-2h1.49c.28,0,.5-.22,.5-.5v-10.78c0-.28-.22-.5-.5-.5Zm-32.12,6h28.51v2.18H15.43v-2.18Zm17.34-8.85h8.67c1.38,0,2.49,1.12,2.49,2.49v5.36h-13.66v-5.36c0-1.38,1.12-2.49,2.49-2.49Zm-17.34,2.44c0-1.38,1.12-2.49,2.49-2.49h8.67c1.38,0,2.49,1.12,2.49,2.49v5.41H15.43v-5.41Zm31.62,11.18H12.31v-9.78h2.11v7.68c0,.28,.22,.5,.5,.5h29.51c.28,0,.5-.22,.5-.5v-7.68h2.11v9.78Z"/><path d="M11.1,20.1c.28,0,.5-.22,.5-.5V9.83c0-.28-.22-.5-.5-.5H2.45c-.28,0-.5,.22-.5,.5v9.77c0,.28,.22,.5,.5,.5h3.83v23.06h-1.59c-.28,0-.5,.22-.5,.5s.22,.5,.5,.5h4.19c.28,0,.5-.22,.5-.5s-.22-.5-.5-.5h-1.59V20.1h3.83ZM2.95,10.33h7.65v8.77H2.95V10.33Z"/></g><g id="uuid-b8ab2ef2-8475-4cd3-9124-d2aa1e22b1a5"><text transform="translate(.19 54.89)" font-family="Roboto-Regular, Roboto" font-size="6"><tspan x="0" y="0">living-</tspan><tspan x="15.61" y="0" letter-spacing="0em">r</tspan><tspan x="17.58" y="0">oom</tspan></text></g></svg>

<svg xmlns="http://www.w3.org/2000/svg" viewBox="0 0 50 50"><defs><style>.cls-1{font-size:6px;font-family:Roboto-Regular, Roboto;}.cls-2{letter-spacing:-0.01em;}</style></defs><g id="ICONS"><path d="M18.45,16.78h27.8l.1,0,.08,0,.08,0a.27.27,0,0,0,.08-.07s0,0,0,0l0,0,0-.09s0-.07,0-.1,0,0,0-.06V6.34a.51.51,0,0,0-.5-.5H18.45a.51.51,0,0,0-.5.5v9.94A.51.51,0,0,0,18.45,16.78Zm20.69-5.43,5.63,4.43H31.46Zm-9.26,4.18-1.58-.92a2.18,2.18,0,0,1,4.21-.6Zm-1.57.25H23.7l2-1.5ZM19,6.84H45.72v8.41l-6.23-4.9a.52.52,0,0,0-.56,0l-5.55,3.2a3.17,3.17,0,0,0-6,.56l-1.43-.82a.5.5,0,0,0-.55,0L22,15.78H19Z"/><path d="M47.55,29.88H44.93v-.35A3.5,3.5,0,0,0,41.44,26H32.77A3.48,3.48,0,0,0,29.7,27.9,3.5,3.5,0,0,0,26.59,26H17.92a3.5,3.5,0,0,0-3.49,3.5v.4H11.81a.51.51,0,0,0-.5.5V41.16a.5.5,0,0,0,.5.5H13.3v2a.51.51,0,0,0,.5.5.5.5,0,0,0,.5-.5v-2H45.06v2a.5.5,0,0,0,1,0v-2h1.49a.5.5,0,0,0,.5-.5V30.38A.51.51,0,0,0,47.55,29.88Zm-32.12,6h28.5v2.17H15.43ZM32.77,27h8.67a2.49,2.49,0,0,1,2.49,2.5v5.36H30.27V29.53A2.5,2.5,0,0,1,32.77,27ZM15.43,29.48A2.5,2.5,0,0,1,17.92,27h8.67a2.5,2.5,0,0,1,2.5,2.5v5.41H15.43V29.48ZM47.05,40.66H12.31V30.88h2.12v7.68a.5.5,0,0,0,.5.5h29.5a.5.5,0,0,0,.5-.5V30.88h2.12Z"/><path d="M11.1,20.1a.5.5,0,0,0,.5-.5V9.83a.5.5,0,0,0-.5-.5H2.45a.5.5,0,0,0-.5.5V19.6a.5.5,0,0,0,.5.5H6.28V43.16H4.68a.5.5,0,0,0-.5.5.51.51,0,0,0,.5.5H8.87a.5.5,0,0,0,.5-.5.5.5,0,0,0-.5-.5H7.28V20.1ZM3,10.33H10.6V19.1H3Z"/></g><g id="LABELS"><text class="cls-1" transform="translate(0.19 54.89)">living-<tspan class="cls-2" x="15.61" y="0">r</tspan><tspan x="17.58" y="0">oom</tspan></text></g></svg>
